X: 42
T:Cavan Buck
% Nottingham Music Database
S:Trad, arr Phil Rowe
M:6/8
K:Bm
"Bm""Bm"d2B "F#m""A"c3|"Bm""G"B2c d2e|"Bm"f2f "E7"e2d| "A"c2A ABc|
 "Bm"dcB "F#m"cBA|"Bm"B2c d2e|"Bm"f^ga "F#m"gfe|"Bm"f2B B3::
"D"a2f d2e|"Bm"f2b b2f|"D"a2f "E7"e2d|"A"c2A ABc|
"Bm"dcB "F#m"cBA|"Bm"B2c d2e|"Bm"f^ga "F#m"gfe|"Bm"f2B B3:|<end>
<start>
